icon-themes/breeze_svg/cmd/32/flowchartshapes.flowchart-or.svg

<svg viewBox="0 0 32 32" xmlns="http://www.w3.org/2000/svg"><path d="m17 4.0429688v10.9570312h10.953125a12 12 0 0 0 -10.953125-10.9570312zm-2 .0078124a12 12 0 0 0 -10.9492188 10.9492188h10.9492188zm-10.953125 12.9492188a12 12 0 0 0 10.953125 10.957031v-10.957031zm12.953125 0v10.949219a12 12 0 0 0 10.949219-10.949219z" fill="#4d4d4d"/></svg>

<svg xmlns="http://www.w3.org/2000/svg" viewBox="0 0 32 32">
 <path 
     style="fill:#4d4d4d" 
     d="M 17 4.0429688 L 17 15 L 27.953125 15 A 12 12 0 0 0 17 4.0429688 z M 15 4.0507812 A 12 12 0 0 0 4.0507812 15 L 15 15 L 15 4.0507812 z M 4.046875 17 A 12 12 0 0 0 15 27.957031 L 15 17 L 4.046875 17 z M 17 17 L 17 27.949219 A 12 12 0 0 0 27.949219 17 L 17 17 z "
     />
</svg>
